src/icons/4x5.svg

<svg xmlns="http://www.w3.org/2000/svg" width="512" height="512" viewBox="0 0 512 512">
    <path d="M373.7 349.8H416v59.7h-42.3v-59.7zm-69.4 0h42.3v59.7h-42.3v-59.7zm-69.5 0h42.3v59.7h-42.3v-59.7zm-69.4 0h42.3v59.7h-42.3v-59.7zm-69.4 0h42.3v59.7H96v-59.7zm277.7-86.7H416v59.7h-42.3v-59.7zm-69.4 0h42.3v59.7h-42.3v-59.7zm-69.5 0h42.3v59.7h-42.3v-59.7zm-69.4 0h42.3v59.7h-42.3v-59.7zm-69.4 0h42.3v59.7H96v-59.7zm277.7-86.8H416V236h-42.3v-59.7zm-69.4 0h42.3V236h-42.3v-59.7zm-69.5 0h42.3V236h-42.3v-59.7zm-69.4 0h42.3V236h-42.3v-59.7zm-69.4 0h42.3V236H96v-59.7zm277.7-86.8H416v59.7h-42.3V89.5zm-69.4 0h42.3v59.7h-42.3V89.5zm-69.5 0h42.3v59.7h-42.3V89.5zm-69.4 0h42.3v59.7h-42.3V89.5zm-69.4 0h42.3v59.7H96V89.5z"/>
</svg>

<?xml version="1.0" encoding="UTF-8"?>
<svg width="512px" height="512px" viewBox="0 0 512 512" version="1.1" xmlns="http://www.w3.org/2000/svg" xmlns:xlink="http://www.w3.org/1999/xlink">
    <!-- Generator: Sketch 62 (91390) - https://sketch.com -->
    <title>4x5</title>
    <desc>Created with Sketch.</desc>
    <g id="4x5" stroke="none" stroke-width="1" fill="none" fill-rule="evenodd">
        <path d="M373.7,349.8 L416,349.8 L416,409.5 L373.7,409.5 L373.7,349.8 Z M304.3,349.8 L346.6,349.8 L346.6,409.5 L304.3,409.5 L304.3,349.8 Z M234.8,349.8 L277.1,349.8 L277.1,409.5 L234.8,409.5 L234.8,349.8 Z M165.4,349.8 L207.7,349.8 L207.7,409.5 L165.4,409.5 L165.4,349.8 L165.4,349.8 Z M96,349.8 L138.3,349.8 L138.3,409.5 L96,409.5 L96,349.8 L96,349.8 Z M373.7,263.1 L416,263.1 L416,322.8 L373.7,322.8 L373.7,263.1 L373.7,263.1 Z M304.3,263.1 L346.6,263.1 L346.6,322.8 L304.3,322.8 L304.3,263.1 Z M234.8,263.1 L277.1,263.1 L277.1,322.8 L234.8,322.8 L234.8,263.1 Z M165.4,263.1 L207.7,263.1 L207.7,322.8 L165.4,322.8 L165.4,263.1 L165.4,263.1 Z M96,263.1 L138.3,263.1 L138.3,322.8 L96,322.8 L96,263.1 L96,263.1 Z M373.7,176.3 L416,176.3 L416,236 L373.7,236 L373.7,176.3 L373.7,176.3 Z M304.3,176.3 L346.6,176.3 L346.6,236 L304.3,236 L304.3,176.3 Z M234.8,176.3 L277.1,176.3 L277.1,236 L234.8,236 L234.8,176.3 Z M165.4,176.3 L207.7,176.3 L207.7,236 L165.4,236 L165.4,176.3 L165.4,176.3 Z M96,176.3 L138.3,176.3 L138.3,236 L96,236 L96,176.3 L96,176.3 Z M373.7,89.5 L416,89.5 L416,149.2 L373.7,149.2 L373.7,89.5 Z M304.3,89.5 L346.6,89.5 L346.6,149.2 L304.3,149.2 L304.3,89.5 Z M234.8,89.5 L277.1,89.5 L277.1,149.2 L234.8,149.2 L234.8,89.5 Z M165.4,89.5 L207.7,89.5 L207.7,149.2 L165.4,149.2 L165.4,89.5 L165.4,89.5 Z M96,89.5 L138.3,89.5 L138.3,149.2 L96,149.2 L96,89.5 Z" id="Shape" fill="#000000" fill-rule="nonzero"></path>
    </g>
</svg>
